!!!COM: Joplin, Scott
!!!CDT: 1868/11/24-1917/04/01
!!!OTL: Peacherine Rag
!!!ODT: 1901
!!!AGN: Rag
!!!OMD: Not too fast.
**kern	**kern
*Ipiano	*Ipiano
*clefF4	*clefG2
*k[b-e-a-]	*k[b-e-a-]
*E-:	*E-:
*M2/4	*M2/4
*MM100	*MM100
*>[A,B,B1,B,B2,C,C1,C,C2,D,E,E1,E,E2,F,F1,F,F2]	*>[A,B,B1,B,B2,C,C1,C,C2,D,E,E1,E,E2,F,F1,F,F2]
*>A	*>A
16E-L	16ee-L
16F	16ff
16G	16gg
[16FJ	[16ffJ
8F]L	8ff]L
8BB-J	8b-J
=2	=2
16FL	16ffL
16G	16gg
16A-	16aa-
[16GJ	[16ggJ
8G]L	8gg]L
8BB-J	8b-J
=3	=3
16CL	16ccL
8C	8cc
16BBnJ	16bnJ
16CL	16ccL
16D	16dd
8E-J	8ee-J
=4	=4
8BB-X	8b-X
4BB-	[8b-
.	16b-]LL
.	16g
8r	16a-
.	16anJJ
!!LO:LB:g=original
=5!|:	=5!|:
*>B	*>B
8E-L	8b-L
8e- B- GJ	8ee- gJ
8BB-L	8dd gL<
8e- B- GJ	8cc gJ
=6	=6
8E-L	16b- gL<
.	8ee- g
8e- B- GJ	.
.	[16dd [gJ
8BB-L	16dd] g]L<
.	16cc
8e- B- GJ	16b-
.	16gJ
=7	=7
8E-L	8b- gL<
8e- B- GJ	8ee- gJ
8BB-L	8dd gL<
8e- B- GJ	8cc gJ
=8	=8
8FL	16b- a-L>
.	8dd a-
8d B- A-J	.
.	[16cc [a-J
8BB-L	16cc] a-]L
.	16b-
8d B- A-J	16f
.	16gJ
!!LO:LB:g=original
=9	=9
8FL	8a-L<
8d B- A-J	8dd a-J
8BB-L	8cc a-L<
8d B- A-J	8b- a-J
=10	=10
8FL	16a-L<
.	8dd a-
8d B- A-J	.
.	[16cc [a-J
8BB-L	16]cc a-]L
.	16b-
8d B- A-J	16dd
.	16ffJ
=11	=11
8FL	8aa- dd a-
8d B-J	4aa- dd a-
8F#L	.
8e- c F#J	8aan ee- an
=12	=12
*^	*^
4G	8GL	8rggg	[>4bb- [ee- [b-
.	8e- B-J	16ee-LL	.
.	.	16ffJJ	.
*v	*v	*	*
8e-\ B-\	16gg	16bb-] ee-] b-]L
.	16raa	16g
8rD	8raa	16a-
.	.	16anJ
*	*v	*v
!!LO:LB:g=original
=13	=13
8E-L	8b-L
8e- B- GJ	8ee- gJ
8BB-L	8dd gL<
8e- B- GJ	8cc gJ
=14	=14
8E-L	16b- gL<
.	8ee- g
8e- B- GJ	.
.	[16dd [gJ
8BB-L	16dd] g]L<
.	16cc
8e- B- GJ	16b-
.	16gJ
=15	=15
8BBnL	8gg g
8f d GJ	4gg bn g
8GGL	.
8f d GJ	8gg b g
=16	=16
*	*^
8CL	8rccc	4.ee- cc g
8e- c GJ	16cccLL	.
.	16dddJJ	.
8e- c G	8eee-	.
8r	8rccc	8cc
*	*v	*v
!!LO:LB:g=original
=17	=17
4A- AA-	8ff ee- ccL
.	8ff ee- ccJ
4An AAn	8ff# ee- ccL
.	8ff# ee- ccJ
=18	=18
8B- BB-L	16gg ee- b-L
.	8gg ee- b-
8e- B- GJ	.
.	16bb- b-J
8CL	8aa- een cc b-L
8en c B- GJ	8gg ee cc b-J
=19	=19
8e-X c FL	16gg anL
.	8gg a
8e- c FJ	.
.	16ee- aJ
*	*^
8d B-L	(<16ffLL	8a-L
.	16ee-JJ)	.
*	*v	*v
8d B-J	8ff a-
=20	=20
*>B1	*>B1
8e- E-L	[4ee- [g
8e- B- GJ	.
8e- B- G	16ee-] g]L<
.	16g
8r	16a-
.	16anJ
=21:|!	=21:|!
*>B2	*>B2
8e- E-L	[4ee- [g
8B- BB-J	.
8E- EE-L	8ee-] g]
8FFJ	8r
!!LO:LB:g=original
=22!|:	=22!|:
*k[b-e-]	*k[b-e-]
*B-:	*B-:
*>C	*>C
8CL	8r
8e- c FJ	8ff ee- aL
8FFL	8gg ee- a
8e- c FJ	8ff ee- aJ
=23	=23
8CL	8r
8e- A FJ	8ccc aa ee-L
8FFL	8ddd aa ee-
8e- A FJ	8ccc aa ee-J
=24	=24
8BB-L	8r
8d B- FJ	8bb- ddL
8FFL	8aa dd
8d B- FJ	8gg ddJ
=25	=25
8BB-L	16gg ddL
.	16ff
8d B- FJ	16een
.	[16ffJ
8FFL	16ff]L
.	16gg
8d B- FJ	8ffJ
=26	=26
8CL	8r
8e- c FJ	8eee- aa ee-L
8FFL	8eee- aa ee-
8e- A FJ	8ddd aa ee-J
!!LO:LB:g=original
=27	=27
*	*^
8CL	16dddLL	4.aa ee-
.	16ccc	.
8e- A FJ	16bbn	.
.	[16cccJJ	.
8FFL	16ccc]LL	.
.	(<16fffJ	.
8e- A FJ	8ffJ)	8rg
*	*v	*v
=28	=28
8BB-L	8r
8d B- FJ	8ddd bb- ddL
8FFL	8ddd ff dd
8d B- FJ	8ccc ff ddJ
=29	=29
*	*^
8BB-L	16cccLL	4.ff dd
.	16bb-	.
8d B- FJ	16aa	.
.	[16bb-JJ	.
8FFL	16bb-]LL	.
.	(<16fffJ	.
8d B- FJ	8ffJ)	8rg
*	*v	*v
=30	=30
8CL	8r
8e- c FJ	8ff ee- aL
8FFL	8gg ee- a
8e- c FJ	8ff ee- aJ
!!LO:LB:g=original
=31	=31
8CL	8r
8e- A FJ	8ccc aa ee-L
8FFL	8ddd aa ee-
8e- A FJ	8ccc aa ee-J
=32	=32
8BB-L	8r
8d B- FJ	8bb- ddL
8FFL	8aa dd
8d B- FJ	8gg ddJ
=33	=33
8BB-L	16gg ddL
.	16ff
8d B- FJ	16een
.	[16ffJ
8FFL	16ff]L
.	16dd
8d B- FJ	16ee-
.	16ffJ
=34	=34
8E- EE-L	16gg gL
.	16ee- b-
8E- EE-J	16gg g
.	[16aa [aJ
8F FFL	16aa] a]L
.	8gg g
8E- EE-J	.
.	16ee- b-J
!!LO:LB:g=original
=35	=35
8D DDL	16ff fL
.	16dd b-
8D DDJ	16ff f
.	[16gg [gJ
8E- EE-L	16gg] g]L
.	8ff f
8D DDJ	.
.	16b-J
=36	=36
8C CCL	16dd b- enL
.	8dd b- e
8C CCJ	.
.	16dd b- eJ
*	*^
8F FFL	(16ccLL	8a e-
.	16b-JJ)	.
*	*v	*v
8F FFJ	8cc a e-
=37	=37
*>C1	*>C1
8B- BB-L	[4b- [d
8B- FJ	.
8B- FL<	8b-] d]
8FFJ	8r
=38:|!	=38:|!
*>C2	*>C2
8B- BB-L	4b- d
8F FFJ	.
4BB- BBB-	4b- a- d
!!LO:LB:g=original
=39||	=39||
*>D	*>D
*k[b-e-a-]	*k[b-e-a-]
8E-L	8b-L
8e- B- GJ	8ee- gJ
8BB-L	8dd gL<
8e- B- GJ	8cc gJ
=40	=40
8E-L	16b- gL<
.	8ee- g
8e- B- GJ	.
.	[16dd [gJ
8BB-L	16dd] g]L<
.	16cc
8e- B- GJ	16b-
.	16gJ
=41	=41
8E-L	8b- gL<
8e- B- GJ	8ee- gJ
8BB-L	8dd gL<
8e- B- GJ	8cc gJ
=42	=42
8FL	16b- a-L>
.	8dd a-
8d B- A-J	.
.	[16cc [a-J
8BB-L	16cc] a-]L
.	16b-
8d B- A-J	16f
.	16gJ
=43	=43
8FL	8a-L<
8d B- A-J	8dd a-J
8BB-L	8cc a-L<
8d B- A-J	8b- a-J
!!LO:LB:g=original
=44	=44
8FL	16a-L<
.	8dd a-
8d B- A-J	.
.	[16cc [a-J
8BB-L	16cc] a-]L
.	16b-
8d B- A-J	16dd
.	16ffJ
=45	=45
8FL	8aa- dd a-
8d B-J	4aa- dd a-
8F#L	.
8e- c F#J	8aan ee- an
=46	=46
*	*^
8GL	8rggg	[4bb- [ee- [b-
8e- B-J	16ee-LL	.
.	16ffJJ	.
!ONB: 8th tail missing in original	!	!
8e- B-	16gg	16bb-] ee-] b-]L
.	16rccc	16g
8r	8rccc	16a-
.	.	16anJ
*	*v	*v
=47	=47
8E-L	8b-L
8e- B- GJ	8ee- gJ
8BB-L	8dd gL<
8e- B- GJ	8cc gJ
=48	=48
8E-L	16b- gL<
.	8ee- g
8e- B- GJ	.
.	[16dd [gJ
8BB-L	16dd] g]L<
.	16cc
8e- B- GJ	16b-
.	16gJ
!!LO:LB:g=original
=49	=49
8BBnL	8gg g
8f d GJ	4gg bn g
8GGL	.
8f d GJ	8ff b g
=50	=50
*	*^
8CL	8r	4.ee- cc g
8e- c GJ	16cccLL	.
.	16dddJJ	.
8e- c G	8eee-	.
8r	8r	8cc
*	*v	*v
=51	=51
4A- AA-	8ff ee- ccL
.	8ff ee- ccJ
4An AAn	8ff# ee- ccL
.	8ff# ee- ccJ
=52	=52
8B- BB-L	16gg ee- b-L
.	8gg ee- b-
8e- B- GJ	.
.	16bb- b-J
8CL	8aa- een b-L
8en c GJ	8gg ee b-J
=53	=53
8e-X c FL	16gg anL
.	8gg a
8e- c FJ	.
.	16ee- aJ
*	*^
8d B-L	(<16ffLL	8a-
.	16ee-JJ)	.
*	*v	*v
8d B-J	8ff a-
=54	=54
8e- E-L	4ee- g
8B- BB-J	.
8E- EE-	8ee- dd- g
8r	8r
!!LO:LB:g=original
=55!|:	=55!|:
*>E	*>E
*k[b-e-a-d-]	*k[b-e-a-d-]
*A-:	*A-:
8A- AA-L	16ee- e-L<
.	16cc
8c A- E-J	16ee- e-
.	16a-J
8A- AA-L	16ccL<
.	8ee- e-
8c A- E-J	.
.	16a-J
=56	=56
8An AAnL	16cc e-L
.	16an
8A AAJ	16cc e-
.	[16dd- [a [e-J
8F FFL	16dd-] a] e-]L
.	8cc a e-
8F FFJ	.
.	16aJ
=57	=57
8Dn DDnL	8cc a-X f dnL
8D DDJ	16b- a- f d
.	[16cc [a- [f [dJ
8BB- BBB-L	16cc] a-] f] d]L
.	16b-
8BB- BBB-J	16a-
.	16fJ
=58	=58
8F FFL	8cc a- dnL
8F FFJ	16b- a- d
.	[16cc [a- [dJ
8BB- BBB-L	16cc] a-] d]L
.	16b-
8BB- BBB-J	16a-
.	16fJ
=59	=59
*	*^
8E- EE-L	4dd-	8.e-L
8d- G E-J	.	.
.	.	(>32f
.	.	32gJ)
*	*v	*v
8G GGL	16b-L<
.	8dd- f
8d- B- E-J	.
.	16gJ
!!LO:LB:g=original
=60	=60
*	*^
8B- BB-L	4dd-	8.e-L
8d- B- GJ	.	.
.	.	(>32f
.	.	32gJ)
*	*v	*v
8E- EE-L	16b-L<
.	8dd- f
8d- B- GJ	.
.	16fJ
=61	=61
8A- AA-L	8cc e-L<
8c A- E-J	16cc en
.	[16cc [fJ
8E- EE-L	16cc] f]L<
.	8cc a-
8c A- E-J	.
.	16cc fJ
=62	=62
8A- AA-L	8cc e-XL<
8c A- E-J	16cc en
.	[16cc [fJ
8E- EE-L	8.cc] f]L<
8c A- E-J	.
.	((32a-
.	32ccJ))
=63	=63
8A- AA-L	16ee- e-L<
.	16cc
8c A- E-J	16ee- e-
.	16a-J
8E- EE-L	16ccL<
.	8ee- e-
8c A- E-J	.
.	16a-J
=64	=64
8An AAnL	16cc e-L<
.	16an
8A AAJ	16cc e-
.	[16dd- [a [e-J
8F FFL	16dd-] a] e-]L<
.	8cc a e-
8F FFJ	.
.	16aJ
!!LO:LB:g=original
=65	=65
8Dn DDnL	8cc a-X f dnL
8D DDJ	16b- a- f d
.	[16cc [a- [f [dJ
8BB- BBB-L	16cc] a-] f] d]L
.	16b-
8BB- BBB-J	16a-
.	16fJ
=66	=66
8F FFL	8cc a- dnL
8F FFJ	16b- a- d
.	[16cc [a- [dJ
8BB- BBB-L	16cc] a-] d]L
.	16b-
8BB- BBB-J	16a-
.	16fJ
=67	=67
*	*^
8E- EE-L	4dd-	8.e-L
8d- G E-J	.	.
.	.	(>32f
.	.	32gJ)
*	*v	*v
8G GGL	16b-L<
.	8dd- f
8d- B- E-J	.
.	16gJ
=68	=68
8B- BB-L	16e-L
.	16g
8d- G E-J	16f
.	16gJ
8E- EE-L<	16dd-L
.	8g d-
8B- G E-J	.
.	[16a- [cJ
!!LO:LB:g=original
=69	=69
*>E1	*>E1
8A- AA-L	2a-_ c_
16E- EE-	.
[16F [FFJ	.
16F] FF]L	.
16E- EE-	.
16F FF	.
16G GGJ	.
=70	=70
8A- AA-	8a-] c]
.	(8ffq
8r	8ee-)
.	(8fqL
4r	8e-L<)
.	16a-L
.	16ccJJ
=71:|!	=71:|!
*>E2	*>E2
8A- AA-L	2a-_ c_
8E- EE-J	.
16F FFL	.
8E- EE-	.
16C CCJ	.
=72	=72
8AA- AAA-	8a-] c]
8r	8r
8AA- AAA-	8aa- cc a-L
8r	8e-J
=73!|:	=73!|:
*>F	*>F
8B- BB-L	16gL<
.	8b-
8d- G E-J	.
.	16ccJ
8E- EE-L	8dd-L
8d- G E-J	16gg
.	16ffJ
!!LO:LB:g=original
=74	=74
8G GGL	8ee- dd-
8d- B- E-J	4ee- dd-
8E- EE-L	.
8d- G E-J	8e-
=75	=75
8A- AA-L	16a-L
.	8cc
8c A- E-J	.
.	16dd-J
8E- EE-L	8ee-L
8c A- E-J	16aa-
.	16ffJ
=76	=76
8AA-L	8ee- cc
8c A- E-J	4ee- cc
8CCL<	.
8c A- E-J	8ee- cc
=77	=77
8DD-L<	16ff dd-L
.	8ff dd-
8d- A- FJ	.
.	[16ff [dd-J
8DD-L<	16ff] dd-]L
.	16aa-
8d- A- F-J	16bb-
.	16aa-J
=78	=78
8AA-L	8ccc ccL
8c A- E-J	[8ccc [ccJ
8AAnL	16ccc] cc]L
.	16eee- ee-
8e- c An F#J	16dddn ddn
.	16ccc ccJ
!!LO:LB:g=original
=79	=79
8BB-L	16bb- b-L
.	16gg
8e- B- GJ	16ccc
.	16bb-J
8BB-L	16aa-L
.	8ddn
8dn B- A- FJ	.
.	16bb-J
=80	=80
8e- B- G E-L	8ee-
16G GG	8r
16B- BB-J	.
8E- EE-	8eee- gg ee-L
8r	8e-J
=81	=81
8B- BB-L	16gL<
.	8b-
8d- G E-J	.
.	16ccJ
8E- EE-L	8dd-L
8d- B- E-J	16gg
.	16ffJ
=82	=82
8G GGL	8ee- dd-
8d- B- E-J	4ee- dd-
8E- EE-L	.
8d- G E-J	8e-
=83	=83
8A- AA-L	16a-L
.	8cc
8c A- E-J	.
.	16dd-J
8E- EE-L	8ee-L
8c A- E-J	16aa-
.	16ffJ
!!LO:LB:g=original
=84	=84
8AA-L	8ee- cc
8c A- E-J	4ee- cc
8CCL<	.
8c A- E-J	8ee- cc
=85	=85
8DD-L<	16ff dd-L
.	8ff dd-
8d- A- FJ	.
.	[16ff [<bnJ
*	*^
8DDnL<	16ff]LL	4b]
.	(<16aa-	.
8Bn A- FJ	16gg	.
.	16ffJJ)	.
*	*v	*v
=86	=86
8EE-L<	8ee- ccL
8c A- E-J	[8ee- [ccJ
8E- EE-L	16ee-] cc]L
.	16ee-
8En EEnJ	16cc
.	16b-J
=87	=87
8F FFL	8a- dnL
8F FFJ	8a- dJ
8E-X EE-XL	16b- g d-L
.	8b- g d-
8G GGJ	.
.	16e-J
=88	=88
*>F1	*>F1
8A- AA-	8a- cL<
8r	16ee-
.	16ee-J
4r	8ee-L<
.	8e-J
=89:|!	=89:|!
*>F2	*>F2
8A- AA-L	4a- c
8E- EE-J	.
8AA- AAA-	8aa- cc a-
8r	8r
==	==;
*-	*-
!!!RDF**kern: > = above
!!!RDF**kern: < = below
!!!URL-vhv: https://verovio.humdrum.org/?file=joplin/peacherine.krn
!!!URL-pdf-original: https://github.com/craigsapp/joplin/blob/master/reference-edition/peacherine.pdf
!!!PPR: John Stark & Son, St. Louis, Missouri
!!!YEC: Copyright 2001 by Craig Stuart Sapp
!!!YEN: United States of America
!!!PDT: 1901
!!!ENC: Craig Stuart Sapp
!!!END: 2001
!!!EED: Craig Stuart Sapp
!!!EEV: 2021/06/30
!!!YEC: 2021 Craig Stuart Sapp
!!!URL: https://github.com/craigsapp/joplin
!!!YEM: Licence: (CC BY-NC-SA 4.0) https://creativecommons.org/licenses/by-nc-sa/4.0
!!!YER: 2021
